resources/svg/solid/brain.svg

<svg xmlns="http://www.w3.org/2000/svg" fill="currentColor" stroke="none" viewBox="0 0 24 24"><path d="M3.299 17.596c.432 1.332 1.745 2.182 3.146 2.182H6.5A2.78 2.78 0 0 0 9.223 22c.457 0 .884-.115 1.262-.313a.992.992 0 0 0 .515-.882V3.027a.997.997 0 0 0-.785-.983 2.324 2.324 0 0 0-1.479.201c-.744.356-1.18 1.151-1.18 1.978v.055a2.778 2.778 0 0 0-2.744 4.433A3.327 3.327 0 0 0 2 12c0 1.178.611 2.211 1.533 2.812-.43.771-.571 1.746-.234 2.784zm15.889-8.885a2.778 2.778 0 0 0-2.744-4.433v-.055c0-.826-.437-1.622-1.181-1.978a2.32 2.32 0 0 0-1.478-.201.998.998 0 0 0-.785.983v17.777c0 .365.192.712.516.882.378.199.804.314 1.261.314a2.78 2.78 0 0 0 2.723-2.223h.056c1.4 0 2.714-.85 3.146-2.182.337-1.038.196-2.013-.234-2.784A3.35 3.35 0 0 0 22 12a3.327 3.327 0 0 0-2.812-3.289z"/></svg>

<svg xmlns="http://www.w3.org/2000/svg" fill="currentColor" stroke="none" viewBox="0 0 24 24"><path d="M3.299 17.596c.432 1.332 1.745 2.182 3.146 2.182H6.5C6.756 21.044 7.878 22 9.223 22c.457 0 .884-.115 1.262-.313C10.808 21.517 11 21.17 11 20.805V3.027c0-.471-.324-.89-.785-.983C9.758 1.951 9.249 2 8.736 2.245 7.992 2.601 7.556 3.396 7.556 4.223v.055C7.378 4.244 7.188 4.223 7 4.223 5.467 4.223 4.223 5.467 4.223 7c0 .645.222 1.244.589 1.711C3.223 8.956 2 10.333 2 12c0 1.178.611 2.211 1.533 2.812C3.103 15.583 2.962 16.558 3.299 17.596zM19.188 8.711C19.556 8.244 19.777 7.645 19.777 7c0-1.533-1.244-2.777-2.777-2.777-.188 0-.378.021-.556.055V4.223c0-.826-.437-1.622-1.181-1.978C14.751 2 14.242 1.951 13.785 2.044 13.324 2.138 13 2.557 13 3.027v17.777c0 .365.192.712.516.882C13.894 21.885 14.32 22 14.777 22c1.345 0 2.467-.956 2.723-2.223h.056c1.4 0 2.714-.85 3.146-2.182.337-1.038.196-2.013-.234-2.784C21.389 14.211 22 13.178 22 12 22 10.333 20.777 8.956 19.188 8.711z"/></svg>
